!!!COM: Buxtehude, Dietrich
!!!CDT: ~1637///-1707/05/09/
!!!ODT: ~1694///
!!!OTL: Sonata in G Major, Op. 1, No. 2
!!!OPS: Op. 1
!!!ONM: No. 2
!!!SCA: BuxWV 253
!!!OMD: 6. Arioso and Variations
!!!URL: http://www.lysator.liu.se/~tuben/scores
!!!ONB: Johan Tufvessons, ed.
!!!SMA: facsmile of the original edition at Uppsala University
**kern	**kern	**kern
*staff3	*staff2	*staff1
*Icemba	*Iviola	*Ivioln
*clefF4	*clefC3	*clefG2
*k[f#]	*k[f#]	*k[f#]
*met(C)	*met(C)	*met(C)
*M4/4	*M4/4	*M4/4
*MM112	*MM112	*MM112
=113-	=113-	=113-
4.G\	8r	8r
.	8d/L	8b\
.	8B/	4.ee\
8E\	8G/J	.
4.F#\	4.A/	.
.	.	8a/
.	.	[4dd\
8D\	8F#/	.
=114	=114	=114
4E\	4G/	8dd\L]
.	.	16cc\L
.	.	16b\JJ
4F#\	8r	8.a\L
.	8A/	.
.	.	16dd\Jk
4.G\	16B\LL	8.b/L
.	16c\	.
.	16d\	.
.	16c\JJ	16a/Jk
.	16B/LL	4g/
.	16c/	.
8F#\	16B/	.
.	16A/JJ	.
=115	=115	=115
8.E\L	8G\L	8r
.	16b\L	16gg\LL
16F#\k	16a\JJ	16ff#\JJ
8G\	8.g\L	8.ee\L
8E\J	.	.
.	16f#\Jk	16dd\Jk
8.A\L	8e/L	4cc#\
.	8A/	.
16G\k	.	.
8F#\	8B/	8dd\L
8E\J	8c#/J	8ee\J
=116	=116	=116
8D/L	4d\	8.ff#\L
8BB/	.	.
.	.	16gg\Jk
8GG/	8.d\L	8.ee\L
8AA/J	.	.
.	16c#\Jk	16aa\Jk
8DD/L	4d\	8.ff#\L
8D/	.	.
.	.	16ee\Jk
8.D/	4r	4dd\
16C/Jk	.	.
=117	=117	=117
8BB\L	4r	4r
8B\	.	.
8.B\	8.f#\L	8.dd#\L
16A\Jk	16f#\Jk	16dd#\Jk
8.G\L	8B\L	8ee\L
.	8e\	8b\J
16A\Jk	.	.
8.G\L	8.e\	4b\
16F#\Jk	16f#\Jk	.
=118	=118	=118
8.E\L	8.g\L	8r
.	.	32ee\LLL
.	.	32ff#\J
16E\Jk	16g\Jk	16gg\JJ
8.D/L	8.a\L	8.ff#\L
16C/Jk	16a\Jk	16ee\Jk
8.BB/L	8.d#\L	4bb\
16C/Jk	16e\Jk	.
8.BB/L	4f#\	8r
.	.	8b\
16AA/Jk	.	.
=119	=119	=119
4GG#/	8r	8.b\L
.	8B/L	.
.	.	16cc\Jk
8FF#/L	8A/	8.dd\L
8GG#/J	8B/J	.
.	.	16b\Jk
4AA/	8E/L	8cc\L
.	8c/	8ee\
8BB/L	8B/	8dd\
8C#/J	16A/L	8ee\J
.	16G/JJ	.
=120	=120	=120
4.D\	8F#/L	8a\L
.	16G/L	16b\L
.	16A/JJ	16cc\JJ
.	8.G/L	8.b/L
8D\	.	.
.	16F#/Jk	16a/Jk
8GG\L	4G/	4g/
8G\	.	.
8B\	4r	4r
8A\J	.	.
*	*clefF4	*
=121	=121	=121
!! Variation 2
4.G\	4G\	16r
.	.	16bb\LL
.	.	16gg\
.	.	16aa\JJ
.	16r	16bb\LL
.	16G\LL	16b\
8E\	16E\	16cc\
.	16G\JJ	16b\JJ
4.F#\	4F#\	16a\LL
.	.	16aa\
.	.	16ff#\
.	.	16gg\JJ
.	16r	16aa\LL
.	16F#\LL	16a\
8D\	16D\	16b\
.	16F#\JJ	16a\JJ
=122	=122	=122
4E\	16E/LL	16g\LL
.	16D/	16b\
.	16C/	16ee\
.	16BB/JJ	16dd\JJ
4F#\	16AA/LL	16cc\LL
.	16D/	16b\
.	16C/	16a\
.	16D/JJ	16cc\JJ
4.G\	8GG\L	8b\L
.	16B\L	16dd\L
.	16A\JJ	16cc\JJ
.	16G\LL	16b\LL
.	16A\	16cc\
8F#\	16F#\	16a\
.	16G\JJ	16b\JJ
=123	=123	=123
8.E\L	8E\L	8g/L
.	16E\L	16cc/L
16F#\Jk	16F#\JJ	16a/JJ
8G\L	16G\LL	8b\L
.	16F#\	.
8E\J	16G\	16ee\L
.	16E\JJ	16dd\JJ
8.A\L	16A\LL	8.cc#\L
.	16B\	.
.	16A\	.
16G\Jk	16G\JJ	16ee\Jk
8.F#\L	16F#\LL	16aa\LL
.	16G\	16bb\
.	16F#\	16aa\
16E\Jk	16E\JJ	16gg\JJ
=124	=124	=124
8D/L	16D/LL	16ff#\LL
.	16C/	16aa\
8BB/	16BB/	16gg\
.	16AA/JJ	16ff#\JJ
8GG/	16BB/LL	16ee\LL
.	16GG/J	16gg\
8AA/J	8AA/J	16ff#\
.	.	16ee\JJ
8DD/L	4DD/	16ff#\LL
.	.	16aa\
8D/	.	16ff#\
.	.	16gg\JJ
8.D/	16r	4aa\
.	16E\LL	.
.	16D\	.
16C/Jk	16C\JJ	.
=125	=125	=125
8BB\L	8BB/	16r
.	.	16dd\LL
8B\	8r	16b\
.	.	16cc\JJ
8.B\	16r	4dd\
.	16c\LL	.
.	16B\	.
16A\Jk	16A\JJ	.
8.G\L	8G\	16r
.	.	16ee\LL
.	8r	16dd\
16A\Jk	.	16cc\JJ
8.G\L	16r	16b\LL
.	16A\LL	16dd\
.	16G\	16ee\
16F#\Jk	16F#\JJ	16ff#\JJ
=126	=126	=126
8.E\L	16E\LL	16gg\LL
.	16F#\	16aa\
.	16G\	16bb\
16E\Jk	16A\JJ	16ccc\JJ
8.D/L	8.B\L	16ff#\LL
.	.	16gg\
.	.	16ee\
16C/Jk	16A\Jk	16ff#\JJ
8.BB/L	8B\L	16dd#\LL
.	.	16ff#\
.	16BB\L	16gg\
16C/Jk	16C\JJ	16aa\JJ
8.BB/L	16BB/LL	4bb\
.	16C/	.
.	16BB/	.
16AA/Jk	16AA/JJ	.
=127	=127	=127
4GG#/	8GG#\L	16r
.	.	16ee\LL
.	8G#\	16b\
.	.	16cc#\JJ
8FF#/L	8A\	16dd\LL
.	.	16ee\
8GG#/J	8B\J	16dd\
.	.	16ee\JJ
4AA/	8E\L	16ccn\LL
.	.	16aa\
.	16A\L	16ee\
.	16AA\JJ	16ff#\JJ
8BB/L	8BB/L	16gg\LL
.	.	16aa\
8C#/J	8C#/J	16gg\
.	.	16aa\JJ
=128	=128	=128
4.D\	8D\L	16ff#\LL
.	.	16dd\
.	16F#\L	16a\
.	16G\JJ	16b\JJ
.	8.A/L	16cc\LL
.	.	16dd\
8D\	.	16cc\
.	16DD/Jk	16dd\JJ
8GG\L	4GG/	16b\LL
.	.	16dd\
8G\	.	16g\
.	.	16b\JJ
8B\	4r	16d\LL
.	.	16dd\
8A\J	.	16cc\
.	.	16dd\JJ
=129	=129	=129
!! Variation 3
4.G\	[4G\	16b\LL
.	.	16cc\
.	.	16dd\
.	.	16b\JJ
.	16G\LL]	[4ee\
.	16F#\	.
8E\	16G\	.
.	16E\JJ	.
4.F#\	[4F#\	16ee\LL]
.	.	16dd\
.	.	16ee\
.	.	16a\JJ
.	16F#\LL]	[4dd\
.	16E\	.
8D\	16F#\	.
.	16D\JJ	.
=130	=130	=130
4E\	8.E\L	16dd\LL]
.	.	16g\
.	.	16cc\
.	16G\Jk	16b\JJ
4F#\	16F#\LL	16a/LL
.	16E\	16g/
.	16F#\	16a/
.	16A\JJ	16cc/JJ
4.G\	8G/L	16b\LL
.	.	16cc\
.	8GG/J	16b\
.	.	16a\JJ
*	*clefC3	*
.	16r	16g\LL
.	16B\LL	16dd\
8F#\	16c#\	16ee\
.	16d\JJ	16ff#\JJ
=131	=131	=131
8.E\L	16e\LL	16gg\LL
.	16g\	16ee\
.	16f#\	16dd\
16F#\Jk	16e\JJ	16cc\JJ
8G\L	16d\LL	16b\LL
.	16B\	16dd\
8E\J	16g\	16ee\
.	16f#\JJ	16dd\JJ
8.A\L	16e\LL	16cc#\LL
.	16c#\	16ee\
.	16d\	16ff#\
16G\Jk	16e\JJ	16gg\JJ
8.F#\L	16f#\LL	16aa\LL
.	16A\	16cc#\
.	16B\	16dd\
16E\Jk	16c#\JJ	16ee\JJ
=132	=132	=132
8D/L	8d\L	16ff#/LL
.	.	16f#/
8BB/	8d\	16g/
.	.	16a/JJ
8GG/	8.d\	16b/LL
.	.	16e/
8AA/J	.	16f#/
.	16c#\Jk	16g/JJ
8DD/L	4d\	16f#/LL
.	.	16a/
8D/	.	16b/
.	.	16cc/JJ
8.D/	16r	16dd/LL
.	16A/LL	16f#/
.	16B/	16g/
16C/Jk	16cn/JJ	16a/JJ
=133	=133	=133
8BB\L	16d\LL	16b\LL
.	16d\	16ff#\
8B\	16e\	16gg\
.	16f#\JJ	16aa\JJ
8.B\	16g\LL	16bb\LL
.	16f#\	16dd\
.	16g\	16ee\
16A\Jk	16a\JJ	16ff#\JJ
8.G\L	8b\L	16gg/LL
.	.	16d/
.	16B\L	16e/
16A\Jk	16c\JJ	16f#/JJ
8.G\L	16B/LL	8.g/L
.	16A/	.
.	16G/	.
16F#\Jk	16F#/JJ	32a/LL
.	.	32b/JJJ
=134	=134	=134
8.E\L	8.E/L	16cc\LL
.	.	16dd\
.	.	16cc\
16E\Jk	16g/Jk	16b\JJ
8.D/L	16f#\LL	8.b/L
.	16g\	.
.	16f#\	.
16C/Jk	16e\JJ	16a/Jk
8.BB/L	16d#\LL	16b\LL
.	16e\	16gg\
.	16d#\	16ff#\
16C/Jk	16e\JJ	16ee\JJ
8.BB/L	16f#\LL	16dd#\LL
.	16d#\	16ff#\
.	16e\	16gg\
16AA/Jk	16f#\JJ	16aa\JJ
=135	=135	=135
4GG#/	16e\LL	4bb\
.	16B\	.
.	16B\	.
.	16c#\JJ	.
8FF#/L	16d\LL	8aa\L
.	16e\	.
8GG#/J	16d\	8bb\J
.	16B\JJ	.
4AA/	8cn\L	16r
.	.	16ee\LL
.	8c#\	16ee\
.	.	16ff#\JJ
8BB/L	8d\	16gg\LL
.	.	16aa\
8C#/J	8e\J	16gg\
.	.	16ee\JJ
=136	=136	=136
4.D\	16r	8ff#\L
.	16A/LL	.
.	16A/	16ff#\L
.	16B/JJ	16gg\JJ
.	16c/LL	8.gg\L
.	16d/	.
8D\	16c/	.
.	16A/JJ	16ff#\Jk
8GG\L	4B/	8.gg\L
8B\	.	.
.	.	32ff#\LL
.	.	32ee\JJJ
8B\	4r	16dd\LL
.	.	16ee\
8A\J	.	16cc\
.	.	16dd\JJ
=137	=137	=137
!! Variation 4
4.G\	8r	8b\L
.	8B/	8dd\
.	4.e\	8b\
8E\	.	8g\J
4.F#\	.	4.a/
.	8A/	.
.	[4d\	.
8D\	.	8f#/
=138	=138	=138
4E\	8d\L]	4g/
.	16c\L	.
.	16B\JJ	.
4F#\	8.A/L	8r
.	.	8a/
.	16d/Jk	.
4.G\	8.B/L	16b\LL
.	.	16cc\
.	.	16dd\
.	16A/Jk	16cc\JJ
.	4G/	16b\LL
.	.	16cc\
8F#\	.	16b\
.	.	16a\JJ
=139	=139	=139
8E\L	8r	8g\L
8F#\	16g\LL	16bb\L
.	16f#\JJ	16aa\JJ
8G\	8.e\L	8.gg\L
8E\J	.	.
.	16d\Jk	16ff#\Jk
8.A\L	4c#\	8ee\L
.	.	8a\
16G\Jk	.	.
8.F#\L	8.d\L	8.b\
16E\Jk	16e\Jk	16cc#\Jk
=140	=140	=140
8D/L	8.f#\L	4dd\
8BB/	.	.
.	16g\Jk	.
8GG/	8.e\L	8.dd\L
8AA/J	.	.
.	16a\Jk	16cc#\Jk
8DD/L	8.f#\L	4dd\
8D/	.	.
.	16e\Jk	.
8.D/	4d\	4r
16C/Jk	.	.
=141	=141	=141
8BB\L	4r	4r
8B\	.	.
8.B\	8.d#\L	8.ff#\L
16A\Jk	16d#\Jk	16ff#\Jk
8.G\L	8e\L	8b\L
.	8B\J	8ee\
16A\Jk	.	.
8.G\L	4B/	8.ee\
16F#\Jk	.	16ff#\Jk
=142	=142	=142
8.E\L	8r	8.gg\L
.	(32e\LLL	.
.	32f#\J	.
16E\Jk	16g\JJ)	16gg\Jk
8.D/L	8.f#\L	8.aa\L
16C/Jk	16e\Jk	16aa\Jk
8.BB/L	4b\	8.dd#\L
16C/Jk	.	16ee\Jk
8.BB/L	8r	4ff#\
.	8B/	.
16AA/Jk	.	.
=143	=143	=143
4GG#/	8.B/L	8r
.	.	8b/L
.	16c/Jk	.
8FF#/L	8.d\L	8a/
8GG#/J	.	8b/J
.	16B\Jk	.
4AA/	8c\L	8e/L
.	8e\	8cc/J
8BB/L	8d\	8b/L
8C#/J	8e\J	16a/L
.	.	16g/JJ
=144	=144	=144
4.D\	8A/L	8f#/L
.	16B/L	16g/L
.	16c/JJ	16a/JJ
.	8.B/L	8.g/L
8D\	.	.
.	16A/Jk	16f#/Jk
8GG\L	4G/	16g/LL
.	.	16d/
8G\	.	16e/
.	.	16f#/
8B\	4r	16g/
.	.	16a/
8A\J	.	16b/
.	.	16cc/JJ
*	*clefF4	*
=145	=145	=145
!! Variation 5
8G\L	16G\LL	16b\LL
.	16A\	16cc\
8F#\	16F#\	16a\
.	16A\JJ	16cc\JJ
8G\	16G\LL	16b/LL
.	16F#\	16a/
8E\J	16G\	16b/
.	16E\JJ	16g/JJ
8F#\L	16F#\LL	16a/LL
.	16G\	16b/
8E\	16E\	16g/
.	16G\JJ	16b/JJ
8F#\	16F#\LL	16a/LL
.	16E\	16g/
8D\J	16F#\	16a/
.	16D\JJ	16f#/JJ
=146	=146	=146
8E\L	16E\LL	16g/LL
.	16F#\	16a/
8D\	16D\	16f#/
.	16F#\JJ	16a/JJ
8E\	16E\LL	16g/LL
.	16G\	16b/
8F#\J	16F#\	16a/
.	16A\JJ	16cc/JJ
8G\L	16G\LL	8b\
.	16B\	.
8A\	16A\	8r
.	16c\JJ	.
8G\	16B\LL	16r
.	16G\	16b/LL
8F#\J	16F#\	16a/
.	16G\JJ	16b/JJ
=147	=147	=147
8E\L	16E\LL	16g\LL
.	16G\	16ee\
8F#\	16F#\	16dd\
.	16A\JJ	16cc\JJ
8G\	16G\LL	16b\LL
.	16F#\	16ee\
8E\J	16G\	16dd\
.	16E\JJ	16ee\JJ
8A\L	16A\LL	16cc#\LL
.	16B\	16dd\
8G\	16G\	16ee\
.	16A\JJ	16e\JJ
8F#\	16F#\LL	16a/LL
.	16G\	16b/
8E\J	16E\	16g/
.	16F#\JJ	16a/JJ
=148	=148	=148
8D/L	16D/LL	16f#\LL
.	16C/	16aa\
8BB/	16BB/	16gg\
.	16AA/JJ	16ff#\JJ
8GG/	16GG/LL	16ee\LL
.	16BB/J	16gg\
8AA/J	8AA/J	16ff#\
.	.	16ee\JJ
8DD/L	8DD/L	16ff#\LL
.	.	16ee\
8D/	16D/L	16ff#\
.	16E/JJ	16gg\JJ
8.D/	16D\LL	16ff#\LL
.	16E\	16gg\
.	16D\	16aa\
16C/Jk	16C\JJ	16a\JJ
=149	=149	=149
8BB\L	8BB\L	16dd\LL
.	.	16cc\
8B\	16B\L	16dd\
.	16c\JJ	16ee\JJ
8.B\	16B\LL	16dd\LL
.	16c\	16ee\
.	16B\	16ff#\
16A\Jk	16A\JJ	16f#\JJ
8G\L	16G\LL	16b\LL
.	16B\	16dd\
8A\	16A\	16ccn\
.	16B\JJ	16dd\JJ
8G\	16G\LL	16b\LL
.	16A\	16cc\
8F#\J	16F#\	16a\
.	16G\JJ	16b\JJ
=150	=150	=150
8E\L	16E\LL	16g/LL
.	16F#\	16a/
8E\J	16G\	16b/
.	16E\JJ	16cc/JJ
8.D/L	16D\LL	8.b/L
.	16E\	.
.	16D\	.
16C/Jk	16C\JJ	16a/Jk
8.BB/L	16BB/LL	16b\LL
.	16AA/	16cc\
.	16BB/	16b\
16C/k	16C/JJ	16a\JJ
8BB/	16BB/LL	4b\
.	16C/	.
8AA/J	16AA/	.
.	16BB/JJ	.
=151	=151	=151
8GG#/L	16GG#/LL	8b\
.	16FF#/	.
8EE/	16GG#/	4ee\
.	16EE/JJ	.
8FF#/	16FF#/LL	.
.	16AA/	.
8GG#/J	16GG#/	16ee\LL
.	16BB/JJ	16dd\JJ
4AA/	8AA/	(8dd\L
.	4A\	8cc\)
8.BB/L	.	(8cc\
.	8G\	8b\J)
16C#/Jk	.	.
=152	=152	=152
8D/L	16F#\LL	8b\L
.	16D\	.
8C#/J	16G\	16b\L
.	16C#\JJ	16ee\JJ
4D\	16D/LL	8.a/L
.	16C#/	.
.	16D/	.
.	16DD/JJ	16g/Jk
8GG\L	8GG\L	4g/
8G\	16G\L	.
.	16A\JJ	.
8B\	16B\LL	4r
.	16cn\	.
8A\J	16A\	.
.	16B\JJ	.
=153	=153	=153
8G\L	\LL	8b\
.	16F#\	.
8E\	16E\	4ee\
.	16G\JJ	.
8F#\	16F#\LL	.
.	16E\	.
8BB\J	16F#\	16ee\LL
.	16BB\JJ	16dd\JJ
8E/L	8E\L	(8dd\L
8AA/	16AA\L	8cc\)
.	[16A\JJ	.
8BB/	8A\L]	(8cc\
8C#/J	8G\J	8b\J)
=154	=154	=154
8D/L	16F#\LL	8b\L
.	16D\	.
8C#/J	16G\	16b\L
.	16C#\JJ	16ee\JJ
4D\	8D/L	8.a/L
.	8DD/J	.
.	.	16g/Jk
2GG;/	2GG;/	2g;/
==	==	==
*-	*-	*-
!!!ENC: Craig Stuart Sapp
!!!END: 2004/12/15/
